X: 2
T: Peacock, The
Z: ceolachan
S: https://thesession.org/tunes/6359#setting18108
R: barndance
M: 4/4
L: 1/8
K: Emin
|: B>A |G2 E2 E2 DE | G2 G2 A2 GA | B3 c dc BA | G2 E2 D2 BA |
G2 E2 E2 D>E | G2 G2 A2 GA | B2 e2 dc BA | G2 E2 E2 :|
|: B>c |d3 e dc BA | B2 e2 e2 fg | d3 e dc BA | G2 E2 D2 BA |
G2 E2 E2 D>E | G2 G2 A2 GA | B2 e2 dc BA | G2 E2 E2 :|
